X:14
T:Frlanks The reewair
Z:id:hn-jig-34
M:6/8
K:D
DEE A2A|BEF FAd|DBB BGB|dcB BAA|BAB fge|fed B


*****************************


12600 2 1.4347823 

<starth
Hef|gBd ~F3|ABc AB|cee ede|fed d2|
efg ac'|agf agf|dBd ged|1ce gee c2d|ede d2B|Bcd fed|~A3 feA|ce


*****************************


12700 2 1.3605285 

<starto] f2f g2f|edB dBd|eAA c2A|GEG AB:|
|:cd cBG|edc dcF|~F3G ABc|dcd edc|1 dcA G3::|2BBd g2b||
<end>
<


*****************************


12800 2 0.9439408 

<start>
W:3 ag deg | aaA BA | C Bd efd | ABc ~g3f | ecB ABd |3 AGG EAB :|2 BGG G2F ||
P:variations
|: ~G2


*****************************


12900 2 1.4901067 

<star!:3Aath]
DED GFD|1 EBD FEDC:|2 AGE E2D||
|:def|cAGF dAF|dfg gfe|fdB fad|cAG FDC|~E3 ecB|AGE GFE|DED 


*****************************


13000 2 2.606595 

<start>
